!!!ONB: MCCC : IEG0008_00 : Extracted Monophonic Melody
!!!COM: Grieg, Edvard
!!!OTL: Ballade Op.24
!!!SCT: Op.24
!!!ODT: 1900///
**kern
*staff1
*clefG2
*k[b-e-]
*B-:
*M3/4
8b-
=2
8.g
16g
4f#
4b-
=3
8.g
16g
4f#
4g
=4
8b-
8cc
4dd
8.b-
16b-
=5
4a
4.g
8b-
=6
8.g
16g
4f#
4b-
=7
8.g
16g
4f#
4g
=8
6b-
12cc
4dd
8.b-
16b-
=9
4a
4g
8r
8g
=10
8.b-
16cc
4dd
8.dd
16ee-
=11
8.dd
16gg
4ff
8r
8b-
=12
8.b-
16cc
4dd
8.b-
16b-
=13
8.cc
16ee-
4dd
4b-
=14
8.g
16g
4f#
4b-
=15
8.g
16g
4f#
4g
=16
8b-
8cc
4dd
8.b-
16b-
=17
4a
4g
8r
8g
=18
8.b-
16cc
4dd
8.dd
16ee-
=19
8.dd
16gg
4ff
8r
8b-
=20
8.b-
16cc
4dd
8.b-
16b-
=21
8.cc
16ee-
4dd
4b-
=22
8.g
16g
4f#
4b-
=23
8.g
16g
4f#
4g
=24
8b-
8cc
4dd
8.b-
16b-
=25
4a
4g
4r
=26
2.r
=27
2.r
=28
2.r
=29
2.r
=30
2.r
=31
2.r
=32
2.r
=33
2.r
=34
4r
4r
6ff
12bb-
=35
6aa
12gg
4ff
4r
=36
4r
4r
6dd
12gg
=37
6ff
12ee-
4dd
4r
=38
2.r
=39
2.r
=40
2.r
=41
2.r
=42
2.r
=43
4r
4r
6ff
12bb-
=44
6aa
12gg
4ff
4r
=45
4r
4r
6dd
12gg
=46
6ff
12ee-
4dd
4r
=47
2.r
=48
2.r
=49
2.r
=50
2.r
=51
*M9/8
4.r
4.r
4b-
8a
=52
4a
8g
4g
8f#
4b-
8a
=53
4a
8g
4g
8f#
4b-
8a
=54
8cc
8.ddd
16ccc
8b
8.ccc
16bb
8b-
8.ccc
16bb-
=55
8a
8.bb-
16aa
8g
8.aa
16gg
8g
8.aa
16gg
=56
8g
8.aa
16ggg
8f#
8.aa
16fff#
8b-
8.ddd
16bbb-
=57
8g
8.aa
16ggg
8f#
8.aa
16fff#
8f
8.gg
16fff
=58
8e
8.gg
16eee
4dd[
16dd]
16bb
4dd-[
16dd-]
16bb-
=59
4cc[
16cc]
16aa
4b-[
16b-]
16gg
4.ggg
=60
8e
16a
16b-
16b
16cc
8e-
16a
16b-
16cc
16dd-
16r
16d
16a
16b-
16dd-
16dd
=61
16r
16dd
16aa
16bb-
16ddd-
16ddd
16r
16ddd
16aaa
16bbb-
16dddd-
16dddd
4.r
=62
8d-
16f#
16g
16a-
16a
8c
16f#
16g
16a-
16a
16r
16B-
16f
16g
16a
16b-
=63
16r
16b-
16ff
16gg
16aa
16bb-
16r
16bb-
16fff
16ggg
16aaa
16bbb-
4.r
=64
4b-
8a
4a
8g
4g
8f#
=65
4b-
8a
4a
8g
4g
8f#
=66
4g
8f
4f
8e-
8r
16r
8dd-
16bb-
=67
8r
16r
8cc
16aa
8r
16r
8b-
16gg
4.ggg
=68
8e
16a
16b-
16b
16cc
8e-
16a
16b-
16cc
16dd-
16r
16d
16a
16b-
16dd-
16dd
=69
16r
16dd
16aa
16bb-
16ddd-
16ddd
16r
16ddd
16aaa
16bbb-
16dddd-
16dddd
4.r
=70
8d-
16f#
16g
16a-
16a
8c
16f#
16g
16a-
16a
16r
16B-
16f
16g
16a
16b-
=71
16r
16b-
16ff
16gg
16aa
16bb-
16r
16bb-
16fff
16ggg
16aaa
16bbb-
4.r
=72
4b-
8a
4a
8g
4g
8f#
=73
4b-
8a
4a
8g
4g
8f#
=74
4g
8f
4f
8e-
8r
16r
8dd-
16bb-
=75
8r
16r
8cc
16aa
8r
16r
8b-
16gg
4.ggg
=76
*M3/4
4r
4r
4d
=77
8.B-
16B-
4A
4d
=78
8.B-
16B-
4A
4B-
=79
8.d
16e-
4f
8.d
16d
=80
4c
4B-
4f
=81
8.d-
16d-
4c
4f
=82
8.d-
16d-
4c
4d-
=83
8.f
16f#
4a-
8.f
16f
=84
4e-
4d-
4r
=85
8.f
16g
4a
8.f
16f
=86
4e-
4.d
8d
=87
8.d
16e-
4f
8.d
16d
=88
4c
4B-
16b-
8dd-
16dd
=89
16g
8b
16cc
16f#
8a-
16a
16B-
8d-
16d
=90
16G
8B
16c
16F#
8G#
16A
4B-
=91
8.d
16e-
4f
8.d
16d
=92
4c
2B-
=93
2.r
=94
8dddd
4dddd
8dddd
8ggg
8a
=95
8ddd
4ddd
8ddd
8gg
8a
=96
16ee
16cc
16ee
16gg
16ee
16cc
16ee
16gg
16ff#
16dd
16ff#
16aa
=97
8gg
4.gg
4r
=98
8ddd
4ddd
8ddd
8gg
8A
=99
8dd
4dd
8dd
8g
8A
=100
16e
16c
16e
16g
16e
16c
16e
16g
16f#
16d
16f#
16a
=101
8g
4.g
4r
=102
8ffff
4ffff
8ffff
8bbb-
8aa
=103
16aaa
16ggg
16fff
16aaa
16ggg
16fff
16aaa
16ggg
16fff
16aaa
16ggg
16fff
=104
8fff
4fff
8fff
8bb-
8b-
=105
16ff#
16ee-
16dd
16ff#
16ee-
16dd
16ff#
16ee-
16dd
16ff#
16ee-
16dd
=106
16dddd
16dddd
16dddd
16dddd
16dddd
16dddd
16dddd
16dddd
8ggg
8a
=107
16ddd
16ddd
16ddd
16ddd
16ddd
16ddd
16ddd
16ddd
8gg
8a
=108
16ee
16cc
16ee
16gg
16ee
16cc
16ee
16gg
16ff#
16dd
16ff#
16aa
=109
8gg
4.gg
4r
=110
8ffff
4ffff
8ffff
8bbb-
8aa
=111
16aaa
16ggg
16fff
16aaa
16ggg
16fff
16aaa
16ggg
16fff
16aaa
16ggg
16fff
=112
8fff
4fff
8fff
8bb-
8b-
=113
16ff#
16ee-
16dd
16ff#
16ee-
16dd
16ff#
16ee-
16dd
16ff#
16ee-
16dd
=114
16dddd
16dddd
16dddd
16dddd
16dddd
16dddd
16dddd
16dddd
8ggg
8a
=115
16ddd
16ddd
16ddd
16ddd
16ddd
16ddd
16ddd
16ddd
8gg
8a
=116
16ee
16cc
16ee
16gg
16ee
16cc
16ee
16gg
16ff#
16dd
16ff#
16aa
=117
8gg
4.gg
4r
=118
2.r
=119
12GGG
12DD
12AA
12BB-
12F
12E
12E-
12D
12B-
=120
12A
12A-
12G
16f
16e
16e-
16d
4d
=121
12b-
12cc
12dd
4b-
4a
=122
12g
12a
12b-
2g
=123
12GG
12D
12A
12B-
12f
12e
12e-
12d
12b-
=124
12a
12a-
12g
16ff
16ee
16ee-
16dd
4dd
=125
12bb-
12ccc
12ddd
4bb-
4aa
=126
12gg
12aa
12bb-
2gg
=127
12GG
12D
12A
12B-
12f
12e
12e-
12d
12b-
=128
12a
12a-
12g
16ff
16ee
16ee-
16dd
4dd
=129
12b-
12cc
12dd
12b-
12dd
12cc
12a
12cc
12b-
=130
12g
12a
12b-
2g
=131
12G
12d
12a
12b-
12ff
12ee
12ee-
12dd
12bb-
=132
12aa
12aa-
12gg
16fff
16eee
16eee-
16ddd
4ddd
=133
12bb-
12ccc
12ddd
12bb-
12ddd
12ccc
12aa
12ccc
12bb-
=134
12gg
12aa
12bb-
2gg
=135
4r
4r
16aa
16gg
16ff
16dd
=136
48b-
48cc
48b-
16a
16f
16ddd
48bb-
48ccc
48bb-
16aa
16gg
16dddd
48bbb-
48cccc
48bbb-
16aaa
8ggg
=137
4r
4r
16aa
16gg
16gg
16ff#
=138
48dd
48ee
48dd
16dd-
16a
16fff#
48ddd
48eee
48ddd
16ddd-
16aa
16ffff#
48dddd
48eeee
48dddd
16dddd-
8aaa
=139
8G
8d
16a
16b-
16ff
16ee[
8ee]
16dd
16bb-[
=140
8bb-]
12aa-
24gg
32r
16fff
32eee
32r
16eee-
32ddd
4ddd
=141
12b-
12cc
12dd
4b-
4a
=142
12g
12a
12b-
2g
=143
4r
4r
16aa
16gg
16ff
16dd
=144
48b-
48cc
48b-
16a
16f
16ddd
48bb-
48ccc
48bb-
16aa
16gg
16dddd
48bbb-
48cccc
48bbb-
16aaa
8ggg
=145
4r
4r
16aa
16gg
16gg
16ff#
=146
48dd
48ee
48dd
16dd-
16a
16fff#
48ddd
48eee
48ddd
16ddd-
16aa
16ffff#
48dddd
48eeee
48dddd
16dddd-
8aaa
=147
8G
8d
16a
16b-
16ff
16ee[
8ee]
16dd
16bb-[
=148
8bb-]
12aa-
24gg
32r
16fff
32eee
32r
16eee-
32ddd
4ddd
=149
12b-
12cc
12dd
4b-
4a
=150
12g
12a
12b-
2g
=151
4r
4r
8r
16r
32r
32e-
=152
8.d
32r
32a
8.g
32r
32b-
8.a
32r
32ee-
=153
8.dd
32r
32aa
8.gg
32r
32bb-
8.aa
32r
32eee-
=154
8.ddd
32r
32fff
8.eee
32r
32fff#
8.eee-
32r
32aaa
=155
8.ggg
32r
32aa
8.gg
32r
32a
8.g
32r
32E-
=156
16.D
32e-
8d
16r
32r
32a
8g
16r
32r
32b-
8a
=157
16r
32r
32ee-
8dd
16r
32r
32aa
8gg
16r
32r
32bb-
8aa
=158
16r
32r
32eee-
8ddd
16r
32r
32fff
8eee
16r
32r
32fff#
8eee-
=159
16r
32r
32aaa
8ggg
16r
32r
32aa
8gg
16r
32r
32a
16.g
32gg
=160
8.ff
32r
32ccc
8.bb-
32r
32gg
8.ff
32r
32dd
=161
8.cc
32r
32ddd
8.ccc
32r
32dddd
8.cccc
32r
32ee-
=162
8.dd
32r
32aa
8.gg
32r
32ee-
8.dd
32r
32b-
=163
8.a
32r
32bb-
8.aa
32r
32bbb-
8.aaa
32r
32e-
=164
8.d
32r
32a
8.g
32r
32b-
8.a
32r
32ee-
=165
8.dd
32r
32aa
8.gg
32r
32bb-
8.aa
32r
32eee-
=166
8.ddd
32r
32fff
8.eee-
32r
32ggg
8.fff
32r
32aaa
=167
8.ggg
32r
32aa
8.gg
32r
32a
8.g
32r
32gg
=168
8.ff
32r
32ccc
8.bb-
32r
32gg
8.ff
32r
32dd
=169
8.cc
32r
32ddd
8.ccc
32r
32dddd
8.cccc
32r
32ee-
=170
8.dd
32r
32aa
8.gg
32r
32ee-
8.dd
32r
32b-
=171
8.a
32r
32bb-
8.aa
32r
32bbb-
8.aaa
32r
32e-
=172
8.d
32r
32a
8.g
32r
32b-
8.a
32r
32ee-
=173
8.dd
32r
32aa
8.gg
32r
32bb-
8.aa
32r
32eee-
=174
8.ddd
32r
32fff
8.eee-
32r
32ggg
8.fff
32r
32aaa
=175
8.ggg
32r
32aa
8.gg
32r
32a
8.g
16e-
=176
8.d
16a
16g
8d
16b-
16a
16f#
16d
16ee-
=177
16dd
16b-
16g
16aa
16gg
16dd
16b-
16bb-
16aa
16ff#
16dd
16eee-
=178
16ddd
16bb-
16gg
16fff
16eee
16ccc
16gg
16fff#
16eee-
16ccc
16gg
16aaa
=179
16ggg
16ddd
16bb-
16aa
16gg
16dd
16b-
16a
16g
16d
16B-
16e-
=180
16d
16B-
16G
16a
16g
16d
16B-
16b-
16a
16f#
16d
16ee-
=181
16dd
16b-
16g
16aa
16gg
16dd
16b-
16bb-
16aa
16ff#
16dd
16eee-
=182
16ddd
16bb-
16gg
16fff
16eee
16ccc
16gg
16fff#
16eee-
16ccc
16gg
16aaa
=183
16ggg
16ddd
16bb-
16aa
16gg
16dd
16b-
16a
16g
16d
16B-
16gg
=184
16ff
16dd
16b-
16ccc
16bb-
16gg
16ee-
16gg
16ff
16dd
16b-
16dddd
=185
48cccc
48dddd
48cccc
16aaa
16fff
16ddd
16ccc
16aa
16ff
16dd
16cc
16a
16f
16gg
=186
16ff
16dd
16b-
16aa
16gg
16dd
16b-
16aa
16gg
16dd-
16a
16bbb-
=187
48aaa
48bbb-
48aaa
16fff#
16ddd
16bb-
16aa
16ff
16dd
16b-
16a
16f#
16d
16e-
=188
16d
16B-
16G
16a
16g
16d
16B-
16b-
16a
16f#
16d
16ee-
=189
16dd
16b-
16g
16aa
16gg
16dd
16b-
16bb-
16aa
16ff#
16dd
16eee-
=190
16ddd
16bb-
16gg
16fff
16eee
16ccc
16gg
16fff#
16eee-
16ccc
16gg
16aaa
=191
16ggg
16ddd
16bb-
16aa
16gg
16dd
16b-
16a
16g
16d
16B-
16gg
=192
16ff
16dd
16b-
16ccc
16bb-
16gg
16ee-
16gg
16ff
16dd
16b-
16dddd
=193
48cccc
48dddd
48cccc
16aaa
16fff
16ddd
16ccc
16aa
16ff
16dd
16cc
16a
16f
16gg
=194
16ff
16dd
16b-
16aa
16gg
16dd
16b-
16aa
16gg
16dd-
16a
16bbb-
=195
48aaa
48bbb-
48aaa
16fff#
16ddd
16bb-
16aa
16ff
16dd
16b-
16a
16f#
16d
16e-
=196
16d
16B-
16G
16a
16g
16d
16B-
16b-
16a
16f#
16d
16ee-
=197
16dd
16b-
16g
16aa
16gg
16dd
16b-
16bb-
16aa
16ff#
16dd
16eee-
=198
16ddd
16bb-
16gg
16fff
16eee
16ccc
16gg
16fff#
16eee-
16ccc
16gg
16aaa
=199
16ggg
16ddd
16bb-
16aa
16gg
16dd
16b-
16a
16g
16d
16B-
16A
=200
4r
4r
4b-
=201
8.g
16g
4f#
4b-
=202
8.g
16g
4f#
4g
=203
8.b-
16cc
4dd
8.b-
16b-
=204
4a
4g
4b-
=205
8.g
16g
4f#
4b-
=206
8.g
16g
4f#
4g
=207
8.b-
16cc
4dd
8.b-
16b-
=208
4a
4g
8r
8g
=209
8.b-
16cc
4dd
8.dd
16ee-
=210
8.dd
16cc
4b-
8r
8b-
=211
8.b-
16cc
4dd
8.b-
16b-
=212
8.cc
16b-
4a
4b-
=213
8.g
16g
4f#
4b-
=214
8.g
16g
4f#
4g
=215
8.b-
16cc
4dd
8.b-
16b-
=216
4a
4g
8r
8g
=217
8.b-
16cc
4dd
8.dd
16ee-
=218
8.dd
16cc
4b-
8r
8b-
=219
8.b-
16cc
4dd
8.b-
16b-
=220
8.cc
16b-
4a
4b-
=221
8.g
16g
4f#
4b-
=222
8.g
16g
4f#
4g
=223
8.b-
16cc
4dd
8.b-
16b-
=224
4a
4g
4r
=225
4r
4r
8dd
8dd-
=226
8cc
8gg
8ee-
8cc
8b-
8a
=227
8g#
8a
8b-
8cc
8dd
8dd-
=228
12cc
12bb-
12aa
12gg
12ee-
12cc
24b-
24cc
24b-
8a
=229
8g#
8a
8b-
8cc
8dd
8dd-
=230
8cc
8bbb-
8aaa-
8fff#
8eee-
8ccc
=231
8bb-
8aa-
8ff#
8ee-
8cc
8b-[
=232
8b-]
8b-
4dd
8ff#
8aa
=233
8aa
8gg
8ff#
8gg
8A
8G
=234
8F#
8G
4r
8ff
8ee
=235
8ee-
8bb-
8gg
8ee-
8dd
8cc
=236
8b
8cc
8dd
8ee-
8ff
8ee
=237
8ee-
8bb-
8gg
8ee-
8ee-
8dd
=238
8cc#
8dd
8ee-
8dd
8dd
8dd-
=239
8cc
8gg
8ee-
8cc
8b-
8a
=240
8g#
8a
8b-
8cc
8dd
8dd-
=241
16cc
16bb-
16aa
16aa-
16gg
16cc
16b
16b-
8b-
8a
=242
8g#
8a
8b-
8cc
8dd
8dd-
=243
8cc
8bbb-
8aaa-
8fff#
8eee-
8ccc
=244
8bb-
8aa-
8ff#
8ee-
8cc
8b-
=245
12cc
12ee-
12ff#
12aa-
12ff#
12ee-
12cc
12b-
12cc
=246
12ee-
12ff#
12aa-
12bb-
12aa-
12ff#
12ee-
12cc
12b-
=247
12cc
12ee-
12ff#
12aa-
12bb-
12ccc
12eee-
12fff#
12aaa-
=248
12bbb-
12cccc
12eeee-
4ffff#
4b-[
=249
4b-]
12b-
12b-
12b-
12b-
12b-
12b-[
=250
8b-]
8b-
4dd
8ff#
8aa
=251
8aa
8gg
8ff#
8gg
8A
8G
=252
8F#
8G
4r
8ff
8ee
=253
8ee-
8bb-
8gg
8ee-
8dd
8cc
=254
8b
8cc
8dd
8ee-
8ff
8ee
=255
8ee-
8bb-
8gg
8ee-
8ee-
8dd
=256
8cc#
8dd
8ee-
8dd
8dd
8dd-
=257
8cc
8gg
8ee-
8cc
8b-
8a
=258
8g#
8a
8b-
8cc
8dd
8dd-
=259
16cc
16bb-
16aa
16aa-
16gg
16cc
16b
16b-
8b-
8a
=260
8g#
8a
8b-
8cc
8dd
8dd-
=261
8cc
8bbb-
8aaa-
8fff#
8eee-
8ccc
=262
8bb-
8aa-
8ff#
8ee-
8cc
8b-
=263
12cc
12ee-
12ff#
12aa-
12ff#
12ee-
12cc
12b-
12cc
=264
12ee-
12ff#
12aa-
12bb-
12aa-
12ff#
12ee-
12cc
12b-
=265
12cc
12ee-
12ff#
12aa-
12bb-
12ccc
12eee-
12fff#
12aaa-
=266
12bbb-
12cccc
12eeee-
4ffff#
4b-[
=267
4b-]
12b-
12b-
12b-
12b-
12b-
12b-[
=268
8b-]
8b-
4dd
8ff#
8aa
=269
8aa
8gg
8ff#
8gg
8A
8G
=270
8F#
8G
4r
4r
=271
2.r
=272
*M12/8
8.ddd
16ccc#
8ddd
8.bb-
16aa
8bb-
8.aa
16gg
8aa
4.ff#
=273
8.gg
16ff#
8gg
8.ee-
16dd
8ee-
8.dd
16cc
8dd
4.b-
=274
8.a
16g
8a
4.cc
8.a
16g
8a
4.cc
=275
8.ee-
16dd
8ee-
8.ff
16ee-
8ff
8.gg
16ff#
8gg
8.ggg
16fff#
8ggg
=276
8.fff
16eee
8fff
8.ddd
16ccc#
8ddd
8.ccc
16bb-
8ccc
4.gg
=277
8.ccc
16bb-
8ccc
8.gg
16ccc
8gg
8.gg
16ccc
8gg
8.gg
16ccc
8gg
=278
8.bb-
16aa
8bb-
8.gg
16ff#
8gg
8.ff
16ee-
8ff
4.cc
=279
8.ff
16ee-
8ff
8.cc
16ff
8cc
8.cc
16ff
8cc
8.cc
16ff
8cc
=280
8.ee-
16dd
8ee-
8.ff
16a-
8ff
8.ee-
16dd
8ee-
8.bb-
16dd
8bb-
=281
8.ee-
16dd
8ee-
8r
16r
16d
8e-
8r
16r
16dd
8ee-
8r
16r
16ddd
8eee-
=282
8.eee-
16ddd
8eee-
8.eee-
16ddd
8eee-
8.eeee-
16dddd
8eeee-
8.eeee-
16dddd
8eeee-
=283
8.dddd
16cccc#
8dddd
8.bbb-
16aaa
8bbb-
8.aaa
16ggg
8aaa
4.fff#
=284
8.ggg
16fff#
8ggg
8.eee-
16ddd
8eee-
8.ddd
16ccc
8ddd
4.bb-
=285
8.aa
16gg#
8aa
4.a
8.ccc
16bb
8ccc
4.cc
=286
8.eee-
16ddd
8eee-
8.fff
16eee-
8fff
8.ggg
16fff#
8ggg[
4.ggg]
=287
8.fff
16eee
8fff
8.ddd
16ccc#
8ddd
8.ccc
16bb-
8ccc
4.gg
=288
8.ccc
16bb-
8ccc
8.gg
16ccc
8gg
8.gg
16ccc
8gg
8.gg
16ccc
8gg
=289
8.bb-
16aa
8bb-
8.gg
16ff#
8gg
8.ff
16ee-
8ff
4.cc
=290
8.ff
16ee-
8ff
8.cc
16ff
8cc
8.cc
16ff
8cc
8.cc
16ff
8cc
=291
8.ee-
16dd
8ee-
8.ff
16a-
8ff
8.ee-
16dd
8ee-
8.bb-
16dd
8bb-
=292
8.ee-
16dd
8ee-
8r
16r
16d
8e-
8r
16r
16dd
8ee-
8r
16r
16ddd
8eee-
=293
8.aa-
16gg
8aa-
8.bb-
16dd-
8bb-
8.aa-
16gg
8aa-
8.eee-
16gg
8eee-
=294
8.aa-
16gg
8aa-
8r
16r
16g
8a-
8r
16r
16gg
8aa-
8r
16r
16ggg
8aaa-
=295
8.bb-
16aa
8bb-
8.ccc
16ee-
8ccc
8.bb-
16aa
8bb-
8.bbb-
16aaa
8bbb-
=296
8.bb
16aa#
8bb
8.ddd-
16ee
8ddd-
8.bb
16aa#
8bb
8.bbb
16aaa#
8bbb
=297
8.ccc
16bb
8ccc
8.cccc
16bbb
8cccc
8.ddd-
16ccc
8ddd-
8.dddd-
16cccc
8dddd-
=298
8.ddd
16dddd-
8dddd
8.eee-
16dddd
8eeee-
8eee
4fff
8fff#
4ggg
=299
8aaa-
4aaa
4.r
4.r
8.aaaa
16gggg#
8aaaa
=300
1.r
=301
1.r
=302
2.f
4.d-[
4d-]
8d-
=303
4.c
8.c
16c
8c
8.c
16g
8a-
8.c
8.d-
=304
8.f
8.f#
8.a-
8.f
4.e-[
4.e-]
=305
4.d-
8.d-
16d-
8d-
8.d-
16g
8a-
8.d-
16gg
8aa-
=306
2.a-
4.e[
4e]
8e
=307
4.e-
8.e-
16e-
8e-
8.e-
16b-
8b
8.e-
8.e
=308
8.g#
8.a
8.b
8.a-
4.f#[
4.f#]
=309
4.e
8.e
16e
8e
8.e
16b-
8b
8.e
16bb-
8bb
=310
*M4/4
4b
8.g
16g
2f#
=311
12b
12cc
12dd
8b
8dd
4f
4e
=312
4cc
8.a
16a
2a-
=313
12cc
12dd
12ee
8cc
8ee
4g
4f#
=314
12dd
12ee
12ff#
8dd
8ff#
4a
4g
=315
12ee
12ff#
12gg
8ee
8gg
4b
4a
=316
*M12/8
8gg
8aa
8bb
8r
8gg
8bb
8r
8gg
8bb
8r
8gg
8bb
=317
8bb
8ccc#
8ddd
8r
8bb
8ddd
8r
8bb
8ddd
8r
8bb
8ddd
=318
4.dd
8.ddd
16ccc#
8ddd
4.dd
8.ddd
16ccc#
8ddd
=319
4.dd
8.ddd
16ccc#
8ddd
4.dd
8.ddd
16ccc#
8ddd
=320
8r
16r
16ccc#
8ddd
8r
16r
16ccc#
8ddd
8r
16r
16ccc#
8ddd
8r
16r
16ccc#
8ddd
=321
*M6/8
4.bb
8.ggg
16fff#
8ggg
=322
4.gg
8.ggg
16fff#
8ggg
=323
4.ff#
8.dddd
16dddd-
8dddd
=324
4.bb
8.ggg
16fff#
8ggg
=325
4.gg
8.aaa
16aaa-
8aaa
=326
4.ff#
8.dddd
16dddd-
8dddd
=327
4.gg
8.dddd
16dddd-
8dddd
=328
4.bb
8dddd
4ccc
=329
4.ddd
4.dddd
=330
4.bb
4.dddd
=331
4.aa
8.dddd
16dddd-
8dddd
=332
4.gg
8.gggg
16ffff#
8gggg
=333
8.ggg
16fff#
8ggg
4.g
=334
4.b
8.bbb
16bbb-
8bbb
=335
4.dd
8.bbb
16bbb-
8bbb
=336
4.dd
8.bbb
16bbb-
8bbb
=337
4.dd
8.bbb
16bbb-
8bbb
=338
4.b
8.bbb
16bbb-
8bbb
=339
8.bb
16aa#
8bb
4.b
=340
4.b
8.bbb
16bbb-
8bbb
=341
4.dd
8.bbb
16bbb-
8bbb
=342
4.b
8.eeee
16eeee-
8eeee
=343
4.cc
8.aaa
16aaa-
8aaa
=344
4.a
8.dddd
16dddd-
8dddd
=345
4.bb
8.ggg
16fff#
8ggg
=346
4.gg
8.ggg
16fff#
8ggg
=347
4.ff#
8.ggg
16fff#
8ggg
=348
4.bb
8.ggg
16fff#
8ggg
=349
4.gg
8.ggg
16fff#
8ggg
=350
4.ff#
8.fff#
16eee#
8fff#
=351
4.gg
8.eee
16eee-
8eee
=352
4.bb
8.eeee
16eeee-
8eeee
=353
4.ddd
4.dddd
=354
4.bb
4.dddd
=355
4.aa
8.ddd
16ddd-
8ddd
=356
*M4/4
8r
16r
16A
16r
8A
16d
16r
8d
16g
16r
8g
16a
=357
16r
8a
16dd
16r
8dd
16gg
16r
8gg
16aa
16r
8aa
16ddd
=358
*M6/8
4.aa
8.dddd
16dddd-
8dddd
=359
*M4/4
8r
16r
16aa
16r
8aa
16ccc
16r
8ccc
16ddd
16r
8ddd
16fff#
=360
16r
8fff#
16aaa
16r
8aaa
16cccc
16r
8cccc
16dddd
16r
8dddd
16ffff#
=361
*M3/4
4r
4r
4b-
=362
4g
4f#
4b-
=363
4g
4f#
4g
=364
8b-
8cc
4dd
4b-
=365
4a
4g
4bb-
=366
4gg
4ff#
4bb-
=367
4gg
4ff#
4gg
=368
8bb-
8ccc
4ddd
4bb-
=369
4aa
4gg
4bbb-
=370
4ggg
4fff#
4aaa-
=371
4fff
4eee
4fff#
=372
4eee-
4ddd
4ccc#
=373
4ddd
4aa
4bb-
=374
4gg
4ff#
4aa-
=375
4ff
4ee
4ff#
=376
4ee-
4dd
4cc#
=377
4dd
4a
12r
12D
12d
=378
12d
12dd
12dd
4ddd
12r
12D
12d
=379
12d
12dd
12dd
4ddd
4g
=380
4g
4g
4a-
=381
4a
4a
12r
12d
12dd
=382
12dd
12ddd
12ddd
4dddd
12r
12d
12dd
=383
12dd
12ddd
12ddd
4dddd
4gg
=384
4gg
4gg
4aa-
=385
4aa
4aa
4r
=386
4aa
4r
4aa
=387
4r
4aa
4aa
=388
4aa
4r
4aa
=389
4r
4aa
4r
=390
4aa
4r
4aa
=391
4r
4aa
4r
=392
4aa
4r
4r
=393
4r
4r
4bb-
=394
8.gg
16gg
4ff#
4bb-
=395
8.gg
16gg
4ff#
4gg
=396
8bb-
8ccc
4ddd
4bb-
=397
4aa
4gg
4bbb-
=398
8.ggg
16ggg
4fff#
4bbb-
=399
8.ggg
16ggg
4fff#
4ggg
=400
8bbb-
8cccc
4dddd
4bbb-
=401
4aaa
4ggg
4r
=402
8bb-
8ccc
4ddd
4bb-
=403
4aa
4gg
4r
=404
8b-
8cc
4dd
4b-
=405
4a
4g
4r
=406
4r
4r
4B-
=407
4A
4G
4b-
=408
4a
4g
4bb-
=409
4aa
4gg
8r
8b-
=410
8a
8g
8r
8bb-
8aa
8gg
=411
8r
8bbb-
8aaa
8ggg
4r
=412
8aaa
8ggg
4r
8aaa
8ggg
=413
4r
8aaa
8ggg
8aaa
8ggg
=414
8aaa
8ggg
8aaa
8ggg
8aaa
8ggg
=415
*M4/4
12aaa
12ggg
12aaa
12aaa
12ggg
12aaa
12aaa
12ggg
12aaa
12aaa
12ggg
12aaa
=416
32ggg
32aaa
32ggg
32aaa
32ggg
32aaa
32ggg
32aaa
32ggg
32aaa
32ggg
32aaa
32ggg
32aaa
32ggg
32aaa
32ggg
32aaa
32ggg
32aaa
32ggg
32aaa
32ggg
32aaa
32ggg
32aaa
32ggg
32aaa
32ggg
32aaa
32ggg
32aaa
=417
32ggg
32aaa
32ggg
32aaa
32ggg
32aaa
32ggg
32aaa
32ggg
32aaa
32ggg
32aaa
32ggg
32aaa
32ggg
32aaa
32ggg
32aaa
32ggg
32aaa
32ggg
32aaa
32ggg
32aaa
32ggg
32aaa
32ggg
32aaa
32ggg
32aaa
32ggg
32aaa
=418
*M3/4
8dddd
8dddd-
4r
4r
=419
2.r
=420
2.r
=421
2.r
=422
2.r
=423
4r
4r
8r
8b-
=424
8.g
16g
4f#
4b-
=425
8.g
16g
4f#
4g
=426
8b-
8cc
4dd
8.b-
16b-
=427
4a
4.g
8b-
=428
8.g
16g
4f#
4b-
=429
8.g
16g
4f#
4g
=430
8b-
8cc
4dd
8.b-
16b-
=431
4a
4g
4r
==
*-
